svg/tooltip_minus_outline.svg

<?xml version="1.0" encoding="UTF-8"?><!DOCTYPE svg PUBLIC "-//W3C//DTD SVG 1.1//EN" "http://www.w3.org/Graphics/SVG/1.1/DTD/svg11.dtd"><svg xmlns="http://www.w3.org/2000/svg" xmlns:xlink="http://www.w3.org/1999/xlink" version="1.1" id="mdi-tooltip-minus-outline" width="24" height="24" viewBox="0 0 24 24"><path d="M20 2H4C2.9 2 2 2.9 2 4V16C2 17.11 2.9 18 4 18H8L12 22L16 18H20C21.11 18 22 17.11 22 16V4C22 2.9 21.11 2 20 2M20 16H15.17L12 19.17L8.83 16H4V4H20V16M16 11H8V9H16V11Z" /></svg>

<svg xmlns="http://www.w3.org/2000/svg" viewBox="0 0 24 24"><path d="M20 2H4c-1.1 0-2 .9-2 2v12a2 2 0 0 0 2 2h4l4 4 4-4h4c1.11 0 2-.89 2-2V4a2 2 0 0 0-2-2m0 14h-4.83L12 19.17 8.83 16H4V4h16zm-4-5H8V9h8z"/></svg>
